X:12
T:Miss Kennard
R:Waltz
C:JB
O:Scotland heading to Alberta
M:3/4
L:1/8
Q:1/2=110
K:D % transposed from C
A,|:"D"D>E F|AFA|"G"G>A B|"D"AFD|"G"G>AB|"D"AFD|"A"E>FE|1 A,B,C:|2 "D"DFA|
"D"d>cd|"F#m"cAF|"G"G>AB|"D"A2F|"G"GG/A/B|"D"AFD|"A"E>FE|A,B,C|
|"D"D>E F|AFA|"G"G>A B|"D"AFD|"G"GG/A/B|"D"AFD|"A"E>DC|"D"D2||
